!!!OTL: Ich ging einstmals spazieren (Band 1), S. 117
!!!id: P0811
**kern
*clefG2
*k[b-]
*F:
{4c
=1
4f
4g
4cc
8b-
16a
16g
=2
8a
8g
4f}
4r
=3
{4g
=4
8f
8f
8cc
8cc
4b-
8cc
8dd
=5
2cc}
4r
=6
{4cc
=7
4cc
8b-
8g
4f
8g
8a
=8
4b-
4cc
4g}
=9
{8f
8dd
=10
4cc
8a
8f
4cc
8b-
8g
=11
2f}
4r
==
*-
!!!minrhy: 16
!!!meters: 4/4 ]  ZZ[4
!!!cut: Ich ging einstmals spazieren (Band 1), S. 117
!!!reg: Lothringen
!!!trd: PINCK, Louis: Verklingende Weisen, Bd 1, Metz 1928
!!!rhy1: X__  X__X__X__X_XX  X_X_X__0__
!!!rhy2: X__  X_X_X_X_X__X_X_  X___0__
!!!key: P0811  16  F 4/4 ]  ZZ[4
!!!mod: SECHSTONSKALA DUR ?]  AMBITUS[9
!!!kad: 1521
!!!akz: 153_145_5142_551_
!!!fot: 'a__b__c__d__
!!!for: 'a__b__c__cw_
!!!fok: '^a_/__Sd_^__
!! PHRAS[AUFTAKTIG]
!!!fkt: verbotene Liebe, Tod
!! LOTH VKL
!! PR[24] 2K[8] 2G[16] 3K[5] 3G[0] 4A[3] 4Ü[0] 5A[3] 6K[0] 6G[0]
!! 7K[3] 7G[0] 8A[0] MEHR[0] SI[37] ABS[38] SR[24] SP[13]
!! ST[15] 2k[11] 2g[18] 3k[3] 3g[0] 4d[5] 4ü[0] 5d[0] 6k[0] 6g[0]
!! 7k[0] 7g[0] 8d[3] mehr[0] si[39] dm[-2] sr[29] sp[11]
!! 1F[24] 2F[51] 3F[20] 4F[0] LF[0] 2P[5] 3P[0] 4P[0] TRI[0] DF[4] AB[41]
!! TF[0] U3K[0] U3[0] U4[0] U4Ü[0] U5[3] U6K[0] U6[5] U7K[3] U7[3]
!! N1[33] N2K[0] N2[21] N3K[0] N3[15] N4[15] N4Ü[0] N5[3] N6K[0] N6[0]
!!!n7k: 0] N7[0] O1[0] O2K[0] O2[0] O3K[0] O3[0] HÖ[0
